icons/svg/osmc_other/osmc_yellow_shell.svg

<?xml version="1.0" encoding="UTF-8" standalone="no"?>
<!-- Generator: Adobe Illustrator 16.0.4, SVG Export Plug-In . SVG Version: 6.00 Build 0)  -->

<svg
   xmlns:dc="http://purl.org/dc/elements/1.1/"
   xmlns:cc="http://creativecommons.org/ns#"
   xmlns:rdf="http://www.w3.org/1999/02/22-rdf-syntax-ns#"
   xmlns:svg="http://www.w3.org/2000/svg"
   xmlns="http://www.w3.org/2000/svg"
   xmlns:sodipodi="http://sodipodi.sourceforge.net/DTD/sodipodi-0.dtd"
   xmlns:inkscape="http://www.inkscape.org/namespaces/inkscape"
   version="1.1"
   id="Слой_1"
   x="0px"
   y="0px"
   width="16"
   height="16"
   viewBox="0 0 16 16"
   xml:space="preserve"
   inkscape:version="0.48.4 r9939"
   sodipodi:docname="osmc_yellow_shell.svg"
   style="enable-background:new"><metadata
     id="metadata11"><rdf:RDF><cc:Work
         rdf:about=""><dc:format>image/svg+xml</dc:format><dc:type
           rdf:resource="http://purl.org/dc/dcmitype/StillImage" /><dc:title /></cc:Work></rdf:RDF></metadata><defs
     id="defs9" /><sodipodi:namedview
     pagecolor="#ffffff"
     bordercolor="#666666"
     borderopacity="1"
     objecttolerance="10"
     gridtolerance="10"
     guidetolerance="10"
     inkscape:pageopacity="0"
     inkscape:pageshadow="2"
     inkscape:window-width="1920"
     inkscape:window-height="1004"
     id="namedview7"
     showgrid="false"
     inkscape:zoom="22.627417"
     inkscape:cx="11.089709"
     inkscape:cy="6.6770127"
     inkscape:window-x="1680"
     inkscape:window-y="0"
     inkscape:window-maximized="1"
     inkscape:current-layer="Слой_1"
     inkscape:snap-bbox="true"
     inkscape:object-nodes="true"
     inkscape:snap-smooth-nodes="true"
     inkscape:bbox-paths="true"
     inkscape:bbox-nodes="true"
     inkscape:snap-bbox-edge-midpoints="true"
     inkscape:snap-bbox-midpoints="true" /><path
     inkscape:connector-curvature="0"
     d="M 6.4454993,3.4389363 C 6.2766442,3.6592873 6.0852465,3.9088123 5.8290914,4.1410973 5.7596935,4.2038683 5.6865372,4.2597823 5.6118346,4.3126043 5.5064108,4.1364563 5.4365703,3.9653913 5.412259,3.9019613 5.37756,3.8115713 5.2851763,3.5715453 5.419089,3.3763893 5.5645157,3.1648793 5.8816708,3.1357053 6.2025834,3.1357053 H 6.355967 c 0.1275246,0 0.2358217,2.21e-4 0.3308578,0.0013 -0.084649,0.09968 -0.1644348,0.202007 -0.2413472,0.301905 z"
     id="path3"
     style="stroke:none;fill:#ffce00;fill-opacity:1" /><path
     inkscape:connector-curvature="0"
     d="m 10.36496,4.3066373 c -0.06719,-0.04597 -0.133493,-0.09459 -0.199134,-0.147859 -0.2493034,-0.202669 -0.4208101,-0.444679 -0.6029261,-0.700834 -0.069838,-0.09857 -0.1441005,-0.202449 -0.225213,-0.304779 0.1653184,-0.01702 0.3310794,-0.01746 0.4608145,-0.01746 0.3211326,0 0.6382876,0.02917 0.7834946,0.240684 0.133934,0.195155 0.04155,0.435176 0.007,0.524908 -0.0442,0.115369 -0.123768,0.262565 -0.224109,0.405339 z"
     id="path5"
     style="stroke:none;fill:#ffce00;fill-opacity:1" /><path
     inkscape:connector-curvature="0"
     d="m 10.331808,6.0387233 c -0.04243,-0.03846 -0.0957,-0.05747 -0.148742,-0.05747 -0.05989,0 -0.120011,0.02431 -0.163551,0.07227 -0.081996,0.0904 -0.075366,0.230297 0.01481,0.312293 l 3.268352,2.9693314 c 0.01658,0.199797 -0.02276,0.437166 -0.133492,0.7514483 -0.178801,0.506122 -0.428988,0.879856 -0.750343,1.285417 -0.155593,0.19626 -0.405339,0.31826 -0.662821,0.341024 L 9.5275383,6.8560353 c -0.037348,-0.08111 -0.1173586,-0.128852 -0.2011227,-0.128852 -0.030941,0 -0.062103,0.0064 -0.091942,0.02012 -0.1109486,0.050827 -0.1597928,0.182112 -0.1087388,0.293061 l 2.2760012,4.9599947 c -0.113601,0.25726 -0.337046,0.473412 -0.628343,0.601157 -0.363567,0.159351 -0.8749934,0.275163 -1.3696225,0.387217 -0.1547098,0.03492 -0.3076517,0.06962 -0.4530787,0.104982 -0.06962,0.01702 -0.1407858,0.02563 -0.2112893,0.02563 -0.1938288,0 -0.3701983,-0.06343 -0.5178356,-0.164213 V 7.1968399 c 0,-0.1222206 -0.099014,-0.2210146 -0.2210136,-0.2210146 -0.1219997,0 -0.2210144,0.09879 -0.2210144,0.2210146 v 5.7127681 c -0.1688543,0.110286 -0.3779332,0.181452 -0.6206066,0.181452 -0.083322,0 -0.1681916,-0.0091 -0.2371485,-0.02387 C 6.3509051,12.988733 5.7974866,12.835792 5.2767776,12.612347 4.9189562,12.459184 4.7014785,12.254747 4.5794788,12.045888 L 6.9292983,7.0980493 c 0.052379,-0.110286 0.00528,-0.24201 -0.1047604,-0.29439 -0.030721,-0.01436 -0.062991,-0.02144 -0.094815,-0.02144 -0.082659,0 -0.1617817,0.04663 -0.1997965,0.1262 L 4.2483994,11.712822 C 3.9986541,11.680332 3.7553174,11.545957 3.5579523,11.32008 3.2432287,10.935516 3.0021024,10.520231 2.8412043,10.085717 2.7426322,9.8189527 2.708596,9.5526307 2.7306975,9.3152627 L 6.0801629,6.4909263 c 0.093268,-0.07868 0.1052029,-0.218142 0.026523,-0.311409 -0.043763,-0.05172 -0.1060866,-0.07846 -0.1690753,-0.07846 -0.05039,0 -0.1010035,0.01702 -0.1423333,0.05194 L 2.6906938,8.7708975 C 2.5737771,8.627459 2.4884659,8.3962786 2.475205,8.0282904 c 0,-1.9522161 1.0734648,-2.3531351 2.1117881,-2.7412351 0.5319804,-0.198692 1.0820838,-0.404456 1.5389198,-0.818636 0.2851076,-0.258365 0.489767,-0.525129 0.6703352,-0.760509 0.3408036,-0.444017 0.6349727,-0.827255 1.23591,-0.827255 0.5788353,0 0.8659324,0.404677 1.1700472,0.833222 0.1909567,0.269195 0.3885426,0.547452 0.6844805,0.787915 0.5101002,0.414622 1.0582142,0.619502 1.5884262,0.81753 1.054237,0.393627 2.049683,0.765813 2.049683,2.7089681 0,0.1832206 -0.06011,0.49485 -0.211952,0.7187376 L 10.331808,6.0387233 z"
     id="path7"
     style="stroke:none;fill:#ffce00;fill-opacity:1" /></svg>

<svg width="16" height="16" viewBox="0 0 16 16" fill="none" xmlns="http://www.w3.org/2000/svg">
<path d="M6.44549 3.43894C6.27664 3.65929 6.08524 3.90882 5.82909 4.1411C5.75969 4.20387 5.68653 4.25979 5.61183 4.31261C5.5064 4.13646 5.43656 3.9654 5.41225 3.90197C5.37755 3.81158 5.28517 3.57155 5.41908 3.3764C5.56451 3.16489 5.88166 3.13571 6.20258 3.13571H6.35596C6.48349 3.13571 6.59178 3.13593 6.68682 3.13701C6.60217 3.23669 6.52238 3.33902 6.44547 3.43892L6.44549 3.43894Z" fill="#FFCE00"/>
<path d="M10.365 4.30664C10.2978 4.26067 10.2315 4.21205 10.1658 4.15878C9.91651 3.95612 9.74501 3.71411 9.56289 3.45795C9.49305 3.35938 9.41879 3.2555 9.33768 3.15317C9.503 3.13615 9.66876 3.13571 9.79849 3.13571C10.1196 3.13571 10.4368 3.16488 10.582 3.3764C10.7159 3.57155 10.6235 3.81157 10.589 3.9013C10.5448 4.01667 10.4652 4.16387 10.3649 4.30664L10.365 4.30664Z" fill="#FFCE00"/>
<path d="M10.3318 6.03871C10.2894 6.00025 10.2361 5.98124 10.1831 5.98124C10.1232 5.98124 10.0631 6.00555 10.0195 6.05351C9.93753 6.14391 9.94416 6.28381 10.0343 6.36581L13.3027 9.33514C13.3193 9.53494 13.2799 9.7723 13.1692 10.0866C12.9904 10.5927 12.7402 10.9664 12.4189 11.372C12.2633 11.5683 12.0135 11.6903 11.756 11.713L9.52755 6.85603C9.49021 6.77492 9.41019 6.72717 9.32643 6.72717C9.29549 6.72717 9.26433 6.73357 9.23449 6.74729C9.12354 6.79812 9.0747 6.92941 9.12575 7.04035L11.4018 12.0003C11.2881 12.2576 11.0647 12.4738 10.7734 12.6015C10.4098 12.7609 9.89841 12.8767 9.40379 12.9887C9.24908 13.0236 9.09613 13.0583 8.95071 13.0937C8.88109 13.1107 8.80992 13.1193 8.73942 13.1193C8.54559 13.1193 8.36922 13.0559 8.22158 12.9551V7.19683C8.22158 7.07461 8.12257 6.97582 8.00057 6.97582C7.87857 6.97582 7.77955 7.07461 7.77955 7.19683V12.9096C7.6107 13.0199 7.40162 13.0911 7.15895 13.0911C7.07562 13.0911 6.99076 13.082 6.9218 13.0672C6.35092 12.9887 5.7975 12.8358 5.27679 12.6123C4.91897 12.4592 4.70149 12.2547 4.57949 12.0459L6.92931 7.09804C6.98169 6.98775 6.93459 6.85603 6.82455 6.80365C6.79383 6.78929 6.76156 6.78221 6.72974 6.78221C6.64708 6.78221 6.56796 6.82884 6.52994 6.90841L4.24841 11.7128C3.99867 11.6803 3.75533 11.5459 3.55797 11.3201C3.24324 10.9355 3.00212 10.5202 2.84122 10.0857C2.74265 9.81894 2.70861 9.55262 2.73071 9.31525L6.08018 6.49092C6.17345 6.41224 6.18538 6.27277 6.1067 6.17951C6.06294 6.12779 6.00061 6.10105 5.93763 6.10105C5.88724 6.10105 5.83662 6.11807 5.79529 6.15299L2.69071 8.77089C2.57379 8.62745 2.48848 8.39627 2.47522 8.02828C2.47522 6.07607 3.54868 5.67515 4.58701 5.28705C5.11899 5.08835 5.66909 4.88259 6.12593 4.46841C6.41104 4.21004 6.61569 3.94328 6.79626 3.7079C7.13707 3.26388 7.43124 2.88065 8.03217 2.88065C8.61101 2.88065 8.89811 3.28532 9.20222 3.71387C9.39318 3.98306 9.59076 4.26132 9.8867 4.50178C10.3968 4.9164 10.9449 5.12128 11.4751 5.31931C12.5294 5.71294 13.5248 6.08513 13.5248 8.02828C13.5248 8.2115 13.4647 8.52313 13.3129 8.74702L10.3318 6.03871Z" fill="#FFCE00"/>
</svg>
